!!!!SEGMENT:06Asazuma_c.krn
!!!OTL:淺妻
!!!OPR:Eiga Banso Kyokusyu,jidai-geki,zenpen
!!!YOY:1929
!!!ONB:Hayakago
**kern
*clefG2
*C:
*M2/4
!LO:TX:a:B:t=Allegro moderato
8BL
8dJ
=1
8eL
8e
8e
8aJ
=2
8bL
8aJ
8bL
8ddJ
=3
8eeL
8eeJ
8eeL
8ddJ
=4
8eeL
8e
8BJ
8gg
=5
8ff#L
8ff#J
8ff#L
8eeJ
=6
8ff#L
8eJ
8BL
8aaJ
=7
8bbL
8aaJ
8bbL
16bbL
16bbJJ
=8
8bbL
16bbL
16bbJJ
8bbL
16bL
16bJJ
=9
8bL
16ccL
16ccJJ
8bL
8bJ
=10
8aL
8bJ
8fnL
8eJ
=11
8dL
8eJ
8fnL
8aJ
=12
8bL
8aJ
8BL
8ggJ
=13
8ff#L
16BL
16ccJJ
8ccL
16BL
16bJJ
=14
8bL
16BL
16aJJ
8aL
16eL
16bJJ
=15
8bL
16eeL
16aaJJ
8aaL
16eeL
16bbJJ
=16
8bbL
8cccJ
8aaL
8bbJ
=17
8ff#L
8eeJ
8ccL
8eeJ
=18
8ff#L
16BL
16aJJ
8bL
8bJ
=19
4e
4r
==
*-
!!!ENC: Yukiko Yoden
!!!END: 2023/06/11
